Catalina-light/actions/16/transform-skew-vertical.svg

<svg xmlns="http://www.w3.org/2000/svg" width="24" height="24" viewBox="0 0 24 24">
 <defs>
  <style id="current-color-scheme" type="text/css">
   .ColorScheme-Text { color:#5c616c; } .ColorScheme-Highlight { color:#5294e2; }
  </style>
 </defs>
 <path style="fill:currentColor" class="ColorScheme-Text" d="M 18.769531 0 A 0.34803699 0.71624863 34.650572 0 0 18.5 0.12109375 L 5.4980469 9.7382812 A 0.34803699 0.71624863 34.650572 0 0 5 10.607422 L 5 21 L 5 23.746094 A 0.34803699 0.71624863 34.650572 0 0 5.4980469 23.878906 L 18.5 14.261719 A 0.34803699 0.71624863 34.650572 0 0 18.998047 13.392578 L 18.998047 0.25390625 A 0.34803699 0.71624863 34.650572 0 0 18.810547 0 A 0.34803699 0.71624863 34.650572 0 0 18.769531 0 z M 5 21 L 3 21 L 3 18 L 2 18 L 2 21 L 0 21 L 2.5 24 L 5 21 z M 21.5 0 L 19 3 L 21 3 L 21 6 L 22 6 L 22 3 L 24 3 L 21.5 0 z M 18.003906 1.4902344 L 18.003906 13.626953 L 5.9960938 22.509766 L 5.9960938 10.371094 L 18.003906 1.4902344 z"/>
 <path style="fill:currentColor;opacity:0.3" class="ColorScheme-Text" d="M 17.855469 1.7460938 C 17.765347 1.7221381 17.639483 1.7597266 17.501953 1.8613281 L 6.4980469 10 C 6.2229869 10.203354 5.99991 10.592522 6 10.869141 L 6 22.007812 C 5.99991 22.284567 6.2229869 22.343828 6.4980469 22.140625 L 17.501953 14 C 17.777013 13.796646 18.00009 13.407478 18 13.130859 L 18 1.9941406 C 18.000045 1.8557632 17.94559 1.7700492 17.855469 1.7460938 z"/>
</svg>

<svg width="24" height="24" viewBox="0 0 24 24" xmlns="http://www.w3.org/2000/svg">
<defs>
<style id="current-color-scheme" type="text/css">.ColorScheme-Text { color:#5c616c; } .ColorScheme-Highlight { color:#5294e2; }</style>
</defs>
<path class="ColorScheme-Text" d="m18.77 0a0.34804 0.71625 34.651 0 0-0.26953 0.12109l-13.002 9.6172a0.34804 0.71625 34.651 0 0-0.49805 0.86914v10.393 2.7461a0.34804 0.71625 34.651 0 0 0.49805 0.13281l13.002-9.6172a0.34804 0.71625 34.651 0 0 0.49805-0.86914v-13.139a0.34804 0.71625 34.651 0 0-0.1875-0.25391 0.34804 0.71625 34.651 0 0-0.041016 0zm-13.77 21h-2v-3h-1v3h-2l2.5 3 2.5-3zm16.5-21-2.5 3h2v3h1v-3h2l-2.5-3zm-3.4961 1.4902v12.137l-12.008 8.8828v-12.139l12.008-8.8809z" fill="#363636"/>
<path class="ColorScheme-Text" d="m17.855 1.7461c-0.090122-0.023956-0.21599 0.013633-0.35352 0.11523l-11.004 8.1387c-0.27506 0.20335-0.49814 0.59252-0.49805 0.86914v11.139c-9e-5 0.27676 0.22299 0.33602 0.49805 0.13281l11.004-8.1406c0.27506-0.20335 0.49814-0.59252 0.49805-0.86914v-11.137c4.5e-5 -0.13838-0.05441-0.22409-0.14453-0.24805z" fill="#363636" opacity=".3"/>
</svg>
